icons/Bug_filled.svg

<svg width="24" height="24" viewBox="0 0 24 24" fill="none" xmlns="http://www.w3.org/2000/svg">
<path fill-rule="evenodd" clip-rule="evenodd" d="M15.4183,2.6248c0.2071,0.35872 0.0842,0.81742 -0.2745,1.02452c-0.3691,0.21312 -0.5852,0.36781 -0.7223,0.53402c-0.0751,0.09108 -0.1393,0.20141 -0.1768,0.36373c0.8933,0.45421 1.5053,1.38206 1.5053,2.45284v0.88979c0.045,0.02194 0.0895,0.04459 0.1335,0.06796c0.557,0.29632 1.0365,0.71505 1.3711,1.29327c0.1745,0.30147 0.3021,0.63333 0.3841,0.99467c0.1668,-0.1944 0.2755,-0.40113 0.3514,-0.62237c0.1464,-0.42707 0.183,-0.94311 0.183,-1.62343c0,-0.41421 0.3358,-0.75 0.75,-0.75c0.4142,0 0.75,0.33579 0.75,0.75c0,0.69607 -0.0307,1.4292 -0.2641,2.1099c-0.2448,0.7139 -0.6977,1.3325 -1.4624,1.8284c-0.0625,0.0405 -0.1287,0.0706 -0.1966,0.0906v1.2923h2.25c0.4142,0 0.75,0.3357 0.75,0.75c0,0.4142 -0.3358,0.75 -0.75,0.75h-2.25v0.2378c0,0.5297 -0.0924,1.0627 -0.254,1.5829c0.5879,0.3932 1.1177,0.8223 1.5065,1.355c0.4391,0.6017 0.6706,1.2965 0.6706,2.1364c0,0.4143 -0.3358,0.75 -0.75,0.75c-0.4142,0 -0.75,-0.3357 -0.75,-0.75c0,-0.5364 -0.1387,-0.9185 -0.3823,-1.2521c-0.204,-0.2796 -0.4978,-0.5475 -0.9049,-0.838c-0.307,0.5482 -0.6757,1.0603 -1.0718,1.5124c-0.5423,0.6189 -1.162,1.1563 -1.7995,1.5438c-0.5998,0.3647 -1.2646,-0.1311 -1.2646,-0.8331v-9.2664c0,-0.4142 -0.3358,-0.75 -0.75,-0.75c-0.4142,0 -0.75,0.3358 -0.75,0.75v9.2664c0,0.702 -0.6648,1.1978 -1.26462,0.8331c-0.63749,-0.3875 -1.2572,-0.9249 -1.79947,-1.5438c-0.39615,-0.4521 -0.7648,-0.9642 -1.07183,-1.5124c-0.40715,0.2905 -0.70092,0.5583 -0.90493,0.8379c-0.24348,0.3335 -0.38223,0.7156 -0.38223,1.2522c0,0.4143 -0.33578,0.75 -0.75,0.75c-0.41421,0 -0.75,-0.3357 -0.75,-0.75c0,-0.8401 0.23143,-1.5348 0.67063,-2.1366c0.38875,-0.5326 0.91855,-0.9616 1.50649,-1.3548c-0.16162,-0.5202 -0.25404,-1.0532 -0.25404,-1.5829v-0.2378h-2.25c-0.41421,0 -0.75,-0.3358 -0.75,-0.75c0,-0.4143 0.33579,-0.75 0.75,-0.75h2.25v-1.3613c-0.06792,-0.02 -0.13413,-0.05 -0.19656,-0.0905c-0.75505,-0.4897 -1.21161,-1.085 -1.46001,-1.7869c-0.23617,-0.66731 -0.26651,-1.38733 -0.26651,-2.0825c0,-0.41421 0.33579,-0.75 0.75,-0.75c0.41422,0 0.75,0.33579 0.75,0.75c0,0.68156 0.03695,1.17626 0.18058,1.58212c0.07804,0.22052 0.19289,0.42878 0.377,0.62878c0.08313,-0.315 0.20473,-0.60811 0.36461,-0.87823c0.33183,-0.56063 0.8042,-0.98112 1.35286,-1.28873c0.04868,-0.02729 0.09803,-0.05373 0.14803,-0.07936v-0.96447c0,-1.15031 0.70628,-2.13567 1.70885,-2.54607c-0.03798,-0.11336 -0.09086,-0.19803 -0.15063,-0.2705c-0.13708,-0.16621 -0.35315,-0.3209 -0.72228,-0.53402c-0.35872,-0.2071 -0.48163,-0.6658 -0.27452,-1.02452c0.20711,-0.35871 0.6658,-0.48162 1.02452,-0.27451c0.38236,0.22078 0.80706,0.48772 1.12946,0.87864c0.2408,0.29199 0.4059,0.62834 0.49,1.02098h1.3189c0.0841,-0.39264 0.2492,-0.72899 0.49,-1.02098c0.3224,-0.39092 0.7471,-0.65786 1.1295,-0.87864c0.3587,-0.20711 0.8174,-0.0842 1.0245,0.27451zM14.25,7.42085v-0.42094c0,-0.69035 -0.5596,-1.25 -1.25,-1.25h-2c-0.6904,0 -1.25,0.55965 -1.25,1.25v0.45479c0.7119,-0.14836 1.4789,-0.20502 2.25,-0.20502c0.7636,0 1.5329,0.04015 2.25,0.17117z" fill="#002B51"/>
</svg>

<svg width="24" height="24" viewBox="0 0 24 24" fill="none" xmlns="http://www.w3.org/2000/svg">
<path fill-rule="evenodd" clip-rule="evenodd" d="M15.4183 2.6248C15.6254 2.98352 15.5025 3.44222 15.1438 3.64932C14.7747 3.86244 14.5586 4.01713 14.4215 4.18334C14.3464 4.27442 14.2822 4.38475 14.2447 4.54707C15.138 5.00128 15.75 5.92913 15.75 6.99991V7.8897C15.795 7.91164 15.8395 7.93429 15.8835 7.95766C16.4405 8.25398 16.92 8.67271 17.2546 9.25093C17.4291 9.5524 17.5567 9.88426 17.6387 10.2456C17.8055 10.0512 17.9142 9.84447 17.9901 9.62323C18.1365 9.19616 18.1731 8.68012 18.1731 7.9998C18.1731 7.58559 18.5089 7.2498 18.9231 7.2498C19.3373 7.2498 19.6731 7.58559 19.6731 7.9998C19.6731 8.69587 19.6424 9.429 19.409 10.1097C19.1642 10.8236 18.7113 11.4422 17.9466 11.9381C17.8841 11.9786 17.8179 12.0087 17.75 12.0287V13.321H20C20.4142 13.321 20.75 13.6567 20.75 14.071C20.75 14.4852 20.4142 14.821 20 14.821H17.75V15.0588C17.75 15.5885 17.6576 16.1215 17.496 16.6417C18.0839 17.0349 18.6137 17.464 19.0025 17.9967C19.4416 18.5984 19.6731 19.2932 19.6731 20.1331C19.6731 20.5474 19.3373 20.8831 18.9231 20.8831C18.5089 20.8831 18.1731 20.5474 18.1731 20.1331C18.1731 19.5967 18.0344 19.2146 17.7908 18.881C17.5868 18.6014 17.293 18.3335 16.8859 18.043C16.5789 18.5912 16.2102 19.1033 15.8141 19.5554C15.2718 20.1743 14.6521 20.7117 14.0146 21.0992C13.4148 21.4639 12.75 20.9681 12.75 20.2661V10.9997C12.75 10.5855 12.4142 10.2497 12 10.2497C11.5858 10.2497 11.25 10.5855 11.25 10.9997V20.2661C11.25 20.9681 10.5852 21.4639 9.98538 21.0992C9.34789 20.7117 8.72818 20.1743 8.18591 19.5554C7.78976 19.1033 7.42111 18.5912 7.11408 18.043C6.70693 18.3335 6.41316 18.6013 6.20915 18.8809C5.96567 19.2144 5.82692 19.5965 5.82692 20.1331C5.82692 20.5474 5.49114 20.8831 5.07692 20.8831C4.66271 20.8831 4.32692 20.5474 4.32692 20.1331C4.32692 19.293 4.55835 18.5983 4.99755 17.9965C5.3863 17.4639 5.9161 17.0349 6.50404 16.6417C6.34242 16.1215 6.25 15.5885 6.25 15.0588V14.821H4C3.58579 14.821 3.25 14.4852 3.25 14.071C3.25 13.6567 3.58579 13.321 4 13.321H6.25V11.9597C6.18208 11.9397 6.11587 11.9097 6.05344 11.8692C5.29839 11.3795 4.84183 10.7842 4.59343 10.0823C4.35726 9.41499 4.32692 8.69497 4.32692 7.9998C4.32692 7.58559 4.66271 7.2498 5.07692 7.2498C5.49114 7.2498 5.82692 7.58559 5.82692 7.9998C5.82692 8.68136 5.86387 9.17606 6.0075 9.58192C6.08554 9.80244 6.20039 10.0107 6.3845 10.2107C6.46763 9.8957 6.58923 9.60259 6.74911 9.33247C7.08094 8.77184 7.55331 8.35135 8.10197 8.04374C8.15065 8.01645 8.2 7.99001 8.25 7.96438V6.99991C8.25 5.8496 8.95628 4.86424 9.95885 4.45384C9.92087 4.34048 9.86799 4.25581 9.80822 4.18334C9.67114 4.01713 9.45507 3.86244 9.08594 3.64932C8.72722 3.44222 8.60431 2.98352 8.81142 2.6248C9.01853 2.26609 9.47722 2.14318 9.83594 2.35029C10.2183 2.57107 10.643 2.83801 10.9654 3.22893C11.2062 3.52092 11.3713 3.85727 11.4554 4.24991H12.7743C12.8584 3.85727 13.0235 3.52092 13.2643 3.22893C13.5867 2.83801 14.0114 2.57107 14.3938 2.35029C14.7525 2.14318 15.2112 2.26609 15.4183 2.6248ZM14.25 7.42085V6.99991C14.25 6.30956 13.6904 5.74991 13 5.74991H11C10.3096 5.74991 9.75 6.30956 9.75 6.99991V7.4547C10.4619 7.30634 11.2289 7.24968 12 7.24968C12.7636 7.24968 13.5329 7.28983 14.25 7.42085Z" fill="#002B51"/>
</svg>
